svg/Editing/align-center.svg

<svg xmlns="http://www.w3.org/2000/svg" width="24" height="24" viewBox="0 0 24 24">
	<g fill="none" stroke="currentColor" stroke-width="2" stroke-linecap="round" stroke-linejoin="round">
		<path d="M12 5h7M12 5h-7" stroke-dasharray="8" stroke-dashoffset="8">
			<animate attributeName="stroke-dashoffset" values="8;0" dur="0.2s" fill="freeze" />
		</path>
		<path d="M12 10h5M12 10h-5" stroke-dasharray="8" stroke-dashoffset="8">
			<animate attributeName="stroke-dashoffset" values="8;0" begin="0.2s" dur="0.2s" fill="freeze" />
		</path>
		<path d="M12 15h9M12 15h-9" stroke-dasharray="12" stroke-dashoffset="12">
			<animate attributeName="stroke-dashoffset" values="12;0" begin="0.4s" dur="0.2s" fill="freeze" />
		</path>
		<path d="M12 20h7M12 20h-7" stroke-dasharray="8" stroke-dashoffset="8">
			<animate attributeName="stroke-dashoffset" values="8;0" begin="0.6s" dur="0.2s" fill="freeze" />
		</path>
	</g>
</svg>

<svg xmlns="http://www.w3.org/2000/svg" width="24" height="24" viewBox="0 0 24 24">
    <g fill="none" stroke="currentColor" stroke-width="2" stroke-linecap="round">
        <path d="M12 5H19M12 5H5" stroke-dasharray="9" stroke-dashoffset="9">
            <animate attributeName="stroke-dashoffset" values="9;0" dur="0.2s" fill="freeze" />
        </path>
        <path d="M12 10H17M12 10H7" stroke-dasharray="7" stroke-dashoffset="7">
            <animate attributeName="stroke-dashoffset" values="7;0" begin="0.2s" dur="0.2s" fill="freeze" />
        </path>
        <path d="M12 15H21M12 15H3" stroke-dasharray="11" stroke-dashoffset="11">
            <animate attributeName="stroke-dashoffset" values="11;0" begin="0.4s" dur="0.2s" fill="freeze" />
        </path>
        <path d="M12 20H19M12 20H5" stroke-dasharray="9" stroke-dashoffset="9">
            <animate attributeName="stroke-dashoffset" values="9;0" begin="0.6s" dur="0.2s" fill="freeze" />
        </path>
    </g>
</svg>
